X: 24759
T: Madrid, The
R: reel
M: 4/4
K: Cmajor
E2 ^GB F2Ac|E^GBE BcdB|defe fedc|BdcB c/B/A ^GF|
E2 ^GB F2Ac|E^GBE BcdB|defe fedc|B^GFD E2de||
f2 fe fedc|Be e2 edcB|Ac c2cBA^G|E^GBE G/A/B de|
f2 fe fedc|Be e2 edcB|Ac c2cBA^G|E^GBG E2 z2||

